X: 2
T:Morrison's
M:6/8
L:1/8
R:Jig
N:http://www.lesession.co.uk
Z:Steve Mansfield 1998-2001
K:Bm
EEE BEB | EBE AFD | EEE BEB | dcB AFD |
EEE BEB | EBE AFD | GFG FGA | dAG FED ::
Bee fee | aee fee | Bee fef | fag fed |
Bee fee | aee fee | edc d2 A |BAG FED |
Bee fee | aee fee | Bee fef | faf def |
g2 g gfe | def g2 d | edc d2 A | BAG FED ||"last time" E6 ||

